src/assets/icons-tech/unity.svg

<?xml version="1.0" encoding="UTF-8" standalone="no"?>
<svg width="256px" height="263px" viewBox="0 0 256 263" version="1.1" xmlns="http://www.w3.org/2000/svg" xmlns:xlink="http://www.w3.org/1999/xlink" preserveAspectRatio="xMidYMid">
	<g fill="#222C37">
		<path d="M166.872326,131.23686 L212.781118,51.9623472 L234.965569,131.23686 L212.781118,210.493243 L166.872326,131.23686 L166.872326,131.23686 Z M144.495923,144.110517 L190.412179,223.373299 L110.445569,202.886567 L52.6751399,144.110517 L144.495923,144.110517 L144.495923,144.110517 Z M190.401515,39.0780261 L144.495923,118.352539 L52.6751399,118.352539 L110.445569,59.5732891 L190.401515,39.0780261 L190.401515,39.0780261 Z M255.940714,104.258913 L227.932619,0.0603519323 L123.392808,27.9852677 L107.918186,55.1924919 L76.5167858,54.9674802 L0,131.244325 L76.5167858,207.50304 L76.519985,207.50304 L107.907522,207.270564 L123.404539,234.477788 L227.932619,262.398438 L255.940714,158.219072 L240.035264,131.23686 L255.940714,104.258913 L255.940714,104.258913 Z"></path>
	</g>
</svg>

<?xml version="1.0" encoding="UTF-8" standalone="no"?>
<!-- Created with Inkscape (http://www.inkscape.org/) -->

<svg
   xmlns:dc="http://purl.org/dc/elements/1.1/"
   xmlns:cc="http://creativecommons.org/ns#"
   xmlns:rdf="http://www.w3.org/1999/02/22-rdf-syntax-ns#"
   xmlns:svg="http://www.w3.org/2000/svg"
   xmlns="http://www.w3.org/2000/svg"
   xmlns:sodipodi="http://sodipodi.sourceforge.net/DTD/sodipodi-0.dtd"
   xmlns:inkscape="http://www.inkscape.org/namespaces/inkscape"
   width="67.717644mm"
   height="69.410286mm"
   viewBox="0 0 67.717644 69.410286"
   version="1.1"
   id="svg8"
   inkscape:version="0.92.4 5da689c313, 2019-01-14"
   sodipodi:docname="unity.svg">
  <defs
     id="defs2" />
  <sodipodi:namedview
     id="base"
     pagecolor="#ffffff"
     bordercolor="#666666"
     borderopacity="1.0"
     inkscape:pageopacity="0.0"
     inkscape:pageshadow="2"
     inkscape:zoom="2.8"
     inkscape:cx="201.62371"
     inkscape:cy="131.23867"
     inkscape:document-units="mm"
     inkscape:current-layer="layer1"
     showgrid="false"
     inkscape:pagecheckerboard="true"
     inkscape:window-width="2560"
     inkscape:window-height="1381"
     inkscape:window-x="0"
     inkscape:window-y="31"
     inkscape:window-maximized="1" />
  <metadata
     id="metadata5">
    <rdf:RDF>
      <cc:Work
         rdf:about="">
        <dc:format>image/svg+xml</dc:format>
        <dc:type
           rdf:resource="http://purl.org/dc/dcmitype/StillImage" />
        <dc:title></dc:title>
      </cc:Work>
    </rdf:RDF>
  </metadata>
  <g
     inkscape:label="Layer 1"
     inkscape:groupmode="layer"
     id="layer1"
     transform="translate(-32.098022,-90.315691)">
    <g
       id="g3765"
       transform="matrix(0.26458333,0,0,0.26458333,32.098022,90.299723)"
       style="fill:#222c37">
      <path
         id="path3763"
         d="m 166.87233,131.23686 45.90879,-79.274513 22.18445,79.274513 -22.18445,79.25638 z m -22.37641,12.87366 45.91626,79.26278 -79.96661,-20.48673 -57.77043,-58.77605 z M 190.40151,39.078026 144.49592,118.35254 H 52.67514 L 110.44557,59.573289 Z M 255.94071,104.25891 227.93262,0.06035193 123.39281,27.985268 107.91819,55.192492 76.516786,54.96748 0,131.24432 76.516786,207.50304 h 0.0032 l 31.387534,-0.23248 15.49702,27.20723 104.52808,27.92065 28.00809,-104.17937 -15.90545,-26.98221 z"
         inkscape:connector-curvature="0" />
    </g>
    <path
       style="fill:#ffffff;stroke:#ffffff;stroke-width:0.35714287"
       d="m 180.63111,453.14621 c 3.45484,-3.48661 16.37843,-16.625 28.71907,-29.19643 12.34065,-12.57143 22.77121,-22.96658 23.17903,-23.10033 2.6982,-0.88494 78.13111,-19.98624 78.29205,-19.8253 0.11062,0.11062 -9.9805,17.80548 -22.42472,39.32192 l -22.62584,39.1208 -45.71056,0.009 -45.71057,0.009 z"
       id="path3779"
       inkscape:connector-curvature="0"
       transform="scale(0.26458333)" />
    <path
       style="fill:#ffffff;stroke:#ffffff;stroke-width:0.35714287"
       d="m 289.69927,558.8905 c -11,-2.84047 -28.5293,-7.36414 -38.954,-10.0526 l -18.954,-4.88812 -22.61763,-23.03571 c -12.4397,-12.66964 -25.36403,-25.80804 -28.72074,-29.19643 l -6.10312,-6.16071 45.71046,0.0103 45.71046,0.0103 22.58929,39.04036 c 12.4241,21.4722 22.58928,39.14613 22.58928,39.27539 0,0.45254 -1.39888,0.12321 -21.25,-5.00284 z"
       id="path3781"
       inkscape:connector-curvature="0"
       transform="scale(0.26458333)" />
    <path
       style="fill:#ffffff;stroke:#ffffff;stroke-width:0.35714287"
       d="m 311.29974,512.07938 c -12.46954,-21.53012 -22.6719,-39.32865 -22.6719,-39.5523 0,-0.41786 45.26545,-78.78804 45.41843,-78.63506 0.20751,0.20751 21.903,78.11191 21.903,78.64951 0,0.52295 -21.69918,78.40506 -21.90115,78.60703 -0.0421,0.0421 -10.27883,-17.53907 -22.74838,-39.06918 z"
       id="path3783"
       inkscape:connector-curvature="0"
       transform="scale(0.26458333)" />
  </g>
</svg>
